X:1
T:Polka in G Major
T:Polka in G Major
T:WWV 84
T:Richard Wagner
C:Richard Wagner
%%score { ( 1 3 ) | 2 }
L:1/8
Q:1/4=120
M:2/4
K:G
V:1 treble nm="Piano" snm="Pno."
V:3 treble 
V:2 bass 
V:1
"^Schnell"!f! !wedge!d/ | !wedge!g!wedge!d !wedge!d(c/d/ | !wedge!e)!wedge!d!wedge!c!wedge!B | %3
 !wedge!A[Q:1/4=80]"^Langsamer""_dim."B/c/ d>A |!p! (c2 B) z/!f! !wedge!d/ | %5
[Q:1/4=120]"^Schnell" !wedge!g!wedge!d !wedge!d(c/d/ | !wedge!e)!wedge!d!wedge!c!wedge!B | %7
 (c[Q:1/4=80]"^Langsamer""_dim."B/c/ e>d) |!p! [Gd]3 z/!f! G/ |[Q:1/4=120]"^Schnell" g_e ed/e/ | %10
 [=F=f]"_dim."[_E_e][Dd][Cc] | _B[Q:1/4=80]A/B/ cB |!p! _B2 A z/!f![Q:1/4=120] G/ | g_e ed/e/ | %14
 [=F=f][_E_e][Dd][Cc] | _B"^rit."[Q:1/4=80]A/B/ c_e | d>d d(3d/d/d/ | %17
"^a tempo"!p![Q:1/4=120] gd dc/d/ | [Ee][Dd][Cc][B,B] | [Ff][Ee][Dd][Cc] | %20
"_cresc." [Gg][Ff][Bb][Aa] | [ee'][dd'][cc'][Bb] |!f! [Aa][Bb]/[cc']/ [dfd']>[fa] | [Bg]2 z2 |] %24
V:2
 z/ | !wedge![G,B,]!wedge![B,D] !wedge![B,D](A,/B,/ | !wedge!C)!wedge!B,!wedge!A,!wedge!G, | %3
 F,2 [D,C]2 | ([G,,D,A,]2 [G,,D,G,]) z | !wedge![G,,G,]!wedge![B,D] !wedge![B,D](A,/B,/ | %6
 !wedge!C)!wedge!B,!wedge!A,!wedge!^G, | A,2 [D,C]2 | [G,B,]3 z | [_E,,_E,][G,_B,] [G,B,] z | %10
 [D,D][C,C][_B,,_B,][A,,A,] | [G,,G,]2 [C,A,][^C,G,] | [D,=C]2- [D,C] z | %13
 [_E,,_E,][G,_B,] [G,B,] z | [D,D][C,C][_B,,_B,][_A,,_A,] | [_E,,_E,]2 [_A,,_A,][=A,,=A,] | %16
 [D,A,C]2- [D,A,C] z | [G,,G,][B,D] [B,D]A,/B,/ | CB,A,G, | DCB,A, | [E,E][D,D][G,G][F,F] | %21
[I:staff -1] [Cc][B,B][I:staff +1] [A,A][G,G] | [C,C]2 [D,,D,]2 | [G,,D,G,]2 z2 |] %24
V:3
 x/ | z !wedge!G !wedge!G z | z !wedge!G!wedge!G!wedge!G | D2 F2 | [DF]2 [DG] z | %5
 !wedge!B!wedge!G !wedge!G z | z !wedge!G!wedge!F!wedge!=F | E2 F2 | x4 | G_E E z | x4 | D2 _E=E | %12
 ^F2- F z | G_E E z | x4 | [_B,G]2 _EG | ^F2- F z | BG G z | x4 | x4 | x4 | x4 | x4 | x4 |] %24

